icons/rocket-16.svg

<svg width="16" height="16" viewBox="0 0 16 16" xmlns="http://www.w3.org/2000/svg">
  <path fill-rule="evenodd" clip-rule="evenodd" d="M14.064 0C11.7434 9.77766e-05 9.51786 0.922034 7.87699 2.563L7.41799 3.021C7.10399 3.335 6.80199 3.662 6.51399 4H3.30999C3.01117 4.00009 2.71736 4.07669 2.45653 4.2225C2.19571 4.36832 1.97657 4.57849 1.81999 4.833L0.10999 7.607C0.0499638 7.7045 0.0130574 7.81445 0.00209983 7.92842C-0.00885773 8.04239 0.00642442 8.15736 0.0467749 8.26451C0.0871255 8.37166 0.151473 8.46815 0.234886 8.54658C0.318298 8.62502 0.418561 8.68331 0.52799 8.717L3.62999 9.671C3.66699 9.722 3.70899 9.771 3.75399 9.816L6.18299 12.244C6.22899 12.29 6.27699 12.332 6.32799 12.369L7.28199 15.471C7.31568 15.5804 7.37397 15.6807 7.45241 15.7641C7.53084 15.8475 7.62733 15.9119 7.73448 15.9522C7.84163 15.9926 7.9566 16.0078 8.07057 15.9969C8.18454 15.9859 8.29449 15.949 8.39199 15.889L11.166 14.182C11.4205 14.0254 11.6307 13.8063 11.7765 13.5455C11.9223 13.2846 11.9989 12.9908 11.999 12.692V9.485C12.337 9.197 12.664 8.895 12.978 8.581L13.436 8.122C15.0771 6.48154 15.9994 4.2564 16 1.936V1.75C16 1.28587 15.8156 0.840752 15.4874 0.512563C15.1592 0.184374 14.7141 0 14.25 0H14.064ZM10.5 10.625C10.412 10.685 10.323 10.743 10.234 10.8L7.88399 12.321L8.43199 14.104L10.381 12.904C10.4174 12.8816 10.4474 12.8503 10.4682 12.813C10.4891 12.7757 10.5 12.7337 10.5 12.691V10.625ZM3.67799 8.116L5.19999 5.766C5.25799 5.676 5.31699 5.588 5.37599 5.5H3.30899C3.26628 5.49999 3.22427 5.51092 3.18699 5.53175C3.1497 5.55258 3.11837 5.58262 3.09599 5.619L1.89599 7.569L3.67799 8.116ZM8.93799 3.623C10.2973 2.26391 12.1408 1.50028 14.063 1.5H14.249C14.3153 1.5 14.3789 1.52634 14.4258 1.57322C14.4727 1.62011 14.499 1.6837 14.499 1.75V1.936C14.4991 2.88813 14.3117 3.83096 13.9474 4.71066C13.5832 5.59035 13.0492 6.38968 12.376 7.063L11.917 7.521C11.157 8.281 10.32 8.958 9.41799 9.541L7.10099 11.041L4.95799 8.898L6.45799 6.581C7.04138 5.67884 7.71847 4.84085 8.47799 4.081L8.93599 3.623H8.93799ZM12 5C12 5.26522 11.8946 5.51957 11.7071 5.70711C11.5196 5.89464 11.2652 6 11 6C10.7348 6 10.4804 5.89464 10.2929 5.70711C10.1053 5.51957 9.99999 5.26522 9.99999 5C9.99999 4.73478 10.1053 4.48043 10.2929 4.29289C10.4804 4.10536 10.7348 4 11 4C11.2652 4 11.5196 4.10536 11.7071 4.29289C11.8946 4.48043 12 4.73478 12 5ZM3.55999 14.56C3.70736 14.4227 3.82557 14.2571 3.90755 14.0731C3.98954 13.8891 4.03362 13.6905 4.03717 13.489C4.04073 13.2876 4.00368 13.0876 3.92824 12.9008C3.85279 12.714 3.7405 12.5444 3.59807 12.4019C3.45563 12.2595 3.28596 12.1472 3.09919 12.0718C2.91241 11.9963 2.71235 11.9593 2.51095 11.9628C2.30954 11.9664 2.11091 12.0105 1.92691 12.0924C1.74292 12.1744 1.57731 12.2926 1.43999 12.44C0.70599 13.17 0.39299 14.772 0.28999 15.443C0.2839 15.4792 0.286547 15.5163 0.29771 15.5512C0.308873 15.5861 0.328229 15.6179 0.354162 15.6438C0.380096 15.6698 0.411855 15.6891 0.44679 15.7003C0.481726 15.7114 0.518824 15.7141 0.55499 15.708C1.22599 15.605 2.82799 15.292 3.55999 14.56Z"/>
</svg>

<svg xmlns="http://www.w3.org/2000/svg" width="16" height="16" viewBox="0 0 16 16"><path fill-rule="evenodd" d="M14.064 0a8.75 8.75 0 00-6.187 2.563l-.459.458c-.314.314-.616.641-.904.979H3.31a1.75 1.75 0 00-1.49.833L.11 7.607a.75.75 0 00.418 1.11l3.102.954c.037.051.079.1.124.145l2.429 2.428c.046.046.094.088.145.125l.954 3.102a.75.75 0 001.11.418l2.774-1.707a1.75 1.75 0 00.833-1.49V9.485c.338-.288.665-.59.979-.904l.458-.459A8.75 8.75 0 0016 1.936V1.75A1.75 1.75 0 0014.25 0h-.186zM10.5 10.625c-.088.06-.177.118-.266.175l-2.35 1.521.548 1.783 1.949-1.2a.25.25 0 00.119-.213v-2.066zM3.678 8.116L5.2 5.766c.058-.09.117-.178.176-.266H3.309a.25.25 0 00-.213.119l-1.2 1.95 1.782.547zm5.26-4.493A7.25 7.25 0 0114.063 1.5h.186a.25.25 0 01.25.25v.186a7.25 7.25 0 01-2.123 5.127l-.459.458a15.21 15.21 0 01-2.499 2.02l-2.317 1.5-2.143-2.143 1.5-2.317a15.25 15.25 0 012.02-2.5l.458-.458h.002zM12 5a1 1 0 11-2 0 1 1 0 012 0zm-8.44 9.56a1.5 1.5 0 10-2.12-2.12c-.734.73-1.047 2.332-1.15 3.003a.23.23 0 00.265.265c.671-.103 2.273-.416 3.005-1.148z"/></svg>
